Source/WebInspectorUI/UserInterface/Images/gtk/Weight.svg

<?xml version="1.0" encoding="UTF-8" standalone="no"?>
<!-- Created with Inkscape (http://www.inkscape.org/) -->

<svg
   xmlns:dc="http://purl.org/dc/elements/1.1/"
   xmlns:cc="http://creativecommons.org/ns#"
   xmlns:rdf="http://www.w3.org/1999/02/22-rdf-syntax-ns#"
   xmlns:svg="http://www.w3.org/2000/svg"
   xmlns="http://www.w3.org/2000/svg"
   version="1.1"
   width="16"
   height="16"
   id="svg2983">
  <defs
     id="defs2985" />
  <metadata
     id="metadata2988">
    <rdf:RDF>
      <cc:Work
         rdf:about="">
        <dc:format>image/svg+xml</dc:format>
        <dc:type
           rdf:resource="http://purl.org/dc/dcmitype/StillImage" />
        <dc:title></dc:title>
      </cc:Work>
    </rdf:RDF>
  </metadata>
  <g
     id="layer1">
    <path
       d="M 4.4375,2 C 3.9170758,2 3.5,2.4170758 3.5,2.9375 l 0,0.125 C 3.5,3.5829242 3.9170758,4 4.4375,4 L 5,4 5,5 4.34375,5 C 3.8695589,5 3.5,5.3695589 3.5,5.84375 L 3.5,14 l 9,0 0,-8.15625 C 12.5,5.3695589 12.130442,5 11.65625,5 L 11,5 11,4 11.5625,4 C 12.082924,4 12.5,3.5829242 12.5,3.0625 l 0,-0.125 C 12.5,2.4170758 12.082924,2 11.5625,2 l -7.125,0 z m 0.90625,5.5625 c 0.02072,-0.00261 0.04178,-0.00261 0.0625,0 L 6,7.5625 C 6.03291,7.5666 6.06499,7.57725 6.09375,7.59375 6.11591,7.60115 6.13701,7.61173 6.15625,7.625 6.21256,7.67003 6.2478,7.74043 6.25,7.8125 l 0,0.96875 0.90625,-1.125 C 7.19424,7.607036 7.2512,7.572861 7.3125,7.5625 c 0.0104,-6.514e-4 0.02085,-6.514e-4 0.03125,0 l 0.6875,0 c 0.03291,0.00406 0.06499,0.014754 0.09375,0.03125 0.02216,0.00743 0.04326,0.017981 0.0625,0.03125 0.04921,0.03799 0.08339,0.094948 0.09375,0.15625 0.0059,0.030879 0.0059,0.062871 0,0.09375 C 8.26788,7.910445 8.24633,7.942775 8.21875,7.96875 L 7.03125,9.4375 8.3125,11 c 0.01327,0.01924 0.02385,0.04034 0.03125,0.0625 0.02104,0.038 0.031929,0.08157 0.03125,0.125 C 8.37094,11.22041 8.36025,11.25249 8.34375,11.28125 8.32164,11.32013 8.28888,11.35289 8.25,11.375 c -0.01924,0.01327 -0.04034,0.02385 -0.0625,0.03125 -0.02072,0.0026 -0.04178,0.0026 -0.0625,0 l -0.71875,0 C 7.37334,11.40219 7.34126,11.3915 7.3125,11.375 7.29034,11.36757 7.26924,11.35702 7.25,11.34375 7.23869,11.33428 7.22825,11.32381 7.21875,11.3125 L 6.25,10.09375 l 0,1.0625 C 6.24776,11.22832 6.21256,11.29872 6.15625,11.34375 6.13701,11.35702 6.11591,11.3676 6.09375,11.375 6.06499,11.3915 6.03291,11.40215 6,11.40625 l -0.59375,0 c -0.02072,0.0026 -0.04178,0.0026 -0.0625,0 -0.09079,-0.02092 -0.16658,-0.09671 -0.1875,-0.1875 -0.0026,-0.02072 -0.0026,-0.04178 0,-0.0625 l 0,-3.34375 C 5.161231,7.7180254 5.22475,7.629102 5.3125,7.59375 5.32197,7.582439 5.33244,7.57197 5.34375,7.5625 z M 9.4375,8.53125 c 0.237404,0 0.39451,0.086642 0.5625,0.15625 0.0095,-0.011311 0.01994,-0.02178 0.03125,-0.03125 0.0095,-0.011311 0.01994,-0.02178 0.03125,-0.03125 0.02876,-0.016496 0.06084,-0.02719 0.09375,-0.03125 0.0104,-6.514e-4 0.02085,-6.514e-4 0.03125,0 l 0.40625,0 c 0.04343,-6.79e-4 0.087,0.010212 0.125,0.03125 0.01131,0.00947 0.02175,0.019939 0.03125,0.03125 0.04343,0.030323 0.0768,0.074815 0.09375,0.125 0.0026,0.020724 0.0026,0.041776 0,0.0625 l 0,2.375 c 0,0.310705 -0.07692,0.670296 -0.3125,0.96875 -0.235581,0.298454 -0.624781,0.5 -1.1875,0.5 -0.249772,0 -0.577031,-0.06006 -0.90625,-0.1875 L 8.34375,12.46875 C 8.33244,12.45928 8.322,12.44881 8.3125,12.4375 8.25177,12.405547 8.20534,12.34751 8.1875,12.28125 c -6.8e-4,-0.04343 0.01021,-0.087 0.03125,-0.125 L 8.375,11.71875 C 8.38243,11.69659 8.39298,11.67549 8.40625,11.65625 8.41572,11.64494 8.42619,11.6345 8.4375,11.625 8.488056,11.57993 8.55751,11.5568 8.625,11.5625 c 0.02072,-0.0026 0.04178,-0.0026 0.0625,0 l 0.09375,0.0625 c 0.139549,0.04652 0.335414,0.09375 0.5,0.09375 0.275361,0 0.35369,-0.05106 0.40625,-0.125 0.01963,-0.02762 0.01759,-0.1358 0.03125,-0.1875 -0.068835,0.01053 -0.11241,0.0625 -0.1875,0.0625 -0.42852,0 -0.808145,-0.142784 -1.0625,-0.40625 C 8.214395,10.799033 8.09375,10.420605 8.09375,10 8.09375,9.4725042 8.285949,9.0750881 8.5625,8.84375 8.839051,8.612412 9.163668,8.53125 9.4375,8.53125 z M 9.59375,9.5 c -0.154889,0 -0.25367,0.0358 -0.3125,0.09375 -0.05883,0.05795 -0.09375,0.1768921 -0.09375,0.4375 0,0.224553 0.05965,0.31499 0.125,0.375 C 9.377849,10.46626 9.473236,10.5 9.625,10.5 c 0.06061,0 0.10828,-0.01424 0.15625,-0.03125 l 0,-0.9375 C 9.721151,9.519861 9.64783,9.5 9.59375,9.5 z"
       id="rect3007"
       style="color:#000000;fill-opacity:1;fill-rule:nonzero;stroke:none;stroke-width:0.9999997;marker:none;visibility:visible;display:block;overflow:visible;enable-background:new" />
  </g>
</svg>

<?xml version="1.0" encoding="UTF-8"?>
<!-- Licensed under the Creative Commons Attribution-Share Alike 3.0 United States License (http://creativecommons.org/licenses/by-sa/3.0/) -->
<svg xmlns="http://www.w3.org/2000/svg" version="1.1" viewBox="0 0 16 16">
 <path d="m4.4375 2c-0.5204 0-0.9375 0.4171-0.9375 0.9375v0.125c0 0.5204 0.4171 0.9375 0.9375 0.9375h0.5625v1h-0.6562c-0.4742 0-0.8438 0.3696-0.8438 0.8438v8.1562h9v-8.1562c0-0.4742-0.37-0.8438-0.844-0.8438h-0.656v-1h0.562c0.521 0 0.938-0.4171 0.938-0.9375v-0.125c0-0.5204-0.417-0.9375-0.938-0.9375h-7.125zm0.90625 5.5625c0.02072-0.00261 0.04178-0.00261 0.0625 0h0.5937c0.0329 0.0041 0.065 0.0147 0.0938 0.0313 0.0221 0.0074 0.0432 0.0179 0.0624 0.0312 0.0564 0.045 0.0916 0.1154 0.0938 0.1875v0.96875l0.90625-1.125c0.038-0.0492 0.095-0.0833 0.1563-0.0937 0.0104-0.0006514 0.02085-0.0006514 0.03125 0h0.6875c0.0329 0.0041 0.0649 0.0148 0.0937 0.0313 0.0222 0.0074 0.0433 0.0179 0.0625 0.0312 0.04921 0.03799 0.08339 0.094948 0.09375 0.15625 0.0059 0.030879 0.0059 0.062871 0 0.09375-0.0133 0.0354-0.0349 0.0678-0.0624 0.0938l-1.1876 1.4687 1.2813 1.5625c0.01327 0.01924 0.02385 0.04034 0.03125 0.0625 0.02104 0.038 0.031929 0.08157 0.03125 0.125-0.0041 0.032-0.0148 0.064-0.0312 0.093-0.0222 0.039-0.0549 0.072-0.0938 0.094-0.01924 0.01327-0.04034 0.02385-0.0625 0.03125-0.02072 0.0026-0.04178 0.0026-0.0625 0h-0.71875c-0.0329-0.004-0.0649-0.014-0.0937-0.031-0.0222-0.007-0.0433-0.018-0.0625-0.031-0.0113-0.01-0.0218-0.02-0.0312-0.032l-0.9688-1.218v1.0625c-0.0022 0.072-0.0374 0.143-0.0938 0.188-0.0192 0.013-0.0403 0.024-0.0624 0.031-0.0288 0.017-0.0609 0.027-0.0938 0.031h-0.59375c-0.02072 0.0026-0.04178 0.0026-0.0625 0-0.09079-0.02092-0.16658-0.09671-0.1875-0.1875-0.0026-0.02072-0.0026-0.04178 0-0.0625v-3.3438c0.005-0.0942 0.0686-0.1831 0.1563-0.2184 0.0095-0.0114 0.0199-0.0218 0.0313-0.0313zm4.0937 0.9687c0.2374 0 0.39451 0.086642 0.5625 0.15625 0.0095-0.011311 0.01994-0.02178 0.03125-0.03125 0.0095-0.011311 0.01994-0.02178 0.03125-0.03125 0.02876-0.016496 0.06084-0.02719 0.09375-0.03125 0.0104-0.0006514 0.02085-0.0006514 0.03125 0h0.40625c0.04343-0.000679 0.087 0.010212 0.125 0.03125 0.01131 0.00947 0.02175 0.019939 0.03125 0.03125 0.04343 0.030323 0.0768 0.074815 0.09375 0.125 0.0026 0.020724 0.0026 0.041776 0 0.0625v2.375c0 0.3107-0.07692 0.6703-0.3125 0.96875s-0.62478 0.5-1.1875 0.5c-0.24977 0-0.57703-0.06006-0.90625-0.1875l-0.094-0.031c-0.0114-0.01-0.0218-0.02-0.0313-0.031-0.0607-0.032-0.1072-0.09-0.125-0.157-0.00068-0.04343 0.01021-0.087 0.03125-0.125l0.1562-0.437c0.0074-0.022 0.018-0.044 0.0312-0.063 0.0095-0.011 0.02-0.022 0.0313-0.031 0.0506-0.045 0.12-0.068 0.1875-0.063 0.02072-0.0026 0.04178-0.0026 0.0625 0l0.09375 0.0625c0.13955 0.04652 0.33541 0.09375 0.5 0.09375 0.27536 0 0.35369-0.05106 0.40625-0.125 0.01963-0.02762 0.01759-0.1358 0.03125-0.1875-0.068835 0.01053-0.11241 0.0625-0.1875 0.0625-0.42852 0-0.80814-0.14278-1.0625-0.40625-0.2543-0.263-0.3749-0.641-0.3749-1.062 0-0.5275 0.1921-0.9249 0.4687-1.1562 0.2766-0.2314 0.6012-0.3126 0.875-0.3126zm0.1563 0.9688c-0.1549 0-0.2537 0.0358-0.3126 0.0938-0.0588 0.0579-0.0937 0.1768-0.0937 0.4372 0 0.22455 0.05965 0.31499 0.125 0.375 0.0653 0.06 0.1607 0.094 0.3125 0.094 0.06061 0 0.10828-0.01424 0.15625-0.03125v-0.9375c-0.06-0.0116-0.1334-0.0315-0.1874-0.0315z" class="filled"/>
</svg>
